!!!!SEGMENT: pl-kk--kk-i-30--002_anonim--missa-sine-credo-et-in-terra.krn
!!!cenid: 17xx:2228
!!!COM: Anonim
!!!COM-rismID: pe30004985
!!!CDT:
!!!CNT:
!!!OPR: Missa sine Credo
!!!OTL: Et in terra
!!!OMV: 002
!!!PDT:
!!!AGN: Sacred; Mass
!!!SMS-siglum: PL-Kk
!!!SMS-shelfmark: Kk.I.30
!!!SMS-shelfwork: 001-002 M
!!!SMS-variant: Baſso. PL Kk KK 24:0015
!!!SMS-altvar: Baſso PL Kk KK 24:0019
!!!NIFC-rismSourceID: 1001156436
!!!NIFC-rismChildID: 1001156436
!!!NIFC-islandoraID: pl-kk:15468
!!!URL-pdf-islandora: https://repozytorium.nifc.pl/islandora/object/pl-kk%3A15468/datastream/PDF/view
!!!URL-scan: https://polish.musicsources.pl/pl/lokalizacje/galeria/rekopisy/7122/1 @EN{Scan on Polish Music Sources Website} @PL{Skany w portalu Dziedzictwo Muzyki Polskiej w otwartym dostępie}
!!!ONB-nifc: UWAGA: części Mszy: 1. Kyrie, 2. Et in terra, 3. Sanctus, 4. Agnus Dei.
!!!AIN: 1 alto 1 empty 1 tenor 1 vox
!!!key:
**kern	**text	**kern	**text	**kern	**text	**kern	**text
*part4	*part4	*part3	*part3	*part2	*part2	*part1	*part1
*staff4	*staff4	*staff3	*staff3	*staff2	*staff2	*staff1	*staff1
*Iempty	*	*Itenor	*	*Ialto	*	*Ivox	*
*I"Baſso.	*	*I"Tenore	*	*I"Alto.	*	*I"Canto.	*
*I'B	*	*I'T	*	*I'A	*	*I'S	*
*clefF4	*	*clefC4	*	*clefC3	*	*clefC1	*
*k[f#]	*	*k[f#]	*	*k[f#]	*	*k[f#]	*
*G:	*	*G:	*	*G:	*	*G:	*
*M2/1	*	*M2/1	*	*M2/1	*	*M2/1	*
*met(C|)	*	*met(C|)	*	*met(C|)	*	*met(C|)	*
=1	=1	=1	=1	=1	=1	=1	=1
*	*	*	*	*2\right	*	*2\right	*
!LO:TX:t=P:problem=w źródle inicjał E na początku pięciolinii	!	!LO:TX:t=P:problem=w źródle inicjał E na początku pięciolinii	!	!	!	!	!
!	!	!	!	!LO:TX:t=P:problem=w źródle inicjał E na początku pięciolinii	!	!LO:TX:t=P:problem=w źródle inicjał E na początku pięciolinii	!
!LO:TX:t=P::problem=w źródle oznaczenie tonacji&colon;FF# F#	!	!LO:TX:t=P::problem=w źródle oznaczenie tonacji&colon; F# f#	!	!	!	!	!
!	!	!	!	!LO:TX:t=P::problem=w źródle oznaczenie tonacji&colon; F# f#	!	!	!
!LO:TX:t=P:problem=kreska pseudotaktowa	!	!LO:TX:t=P:problem=kreska pseudotaktowa	!	!	!	!	!
0r	.	0r	.	2r	.	2r	.
!	!	!	!	!LO:TX:t=P:problem=kreska pseudotaktowa	!	!	!
!	!	!	!	!LO:TX:a:t=P:problem=w źródle możliwa ligatura	!	!	!
.	.	.	.	(<2g\	Et	4b\	Et
!	!	!	!	!	!	!LO:TX:t=P:problem=kreska pseudotaktowa	!
.	.	.	.	.	.	4b\	in
.	.	.	.	4g\)	.	2cc\	ter-
.	.	.	.	4g\	in	.	.
!	!	!	!	!	!	!LO:TX:t=P:problem=kreska pseudotaktowa	!
.	.	.	.	4f#\	ter-	2dd\	-ra
!	!	!	!	!LO:TX:t=P:problem=kreska pseudotaktowa	!	!	!
.	.	.	.	4f#\	-ra	.	.
=2	=2	=2	=2	=2	=2	=2	=2
*2\right	*	*2\right	*	*	*	*	*
2r	.	2r	.	2g\	pax	2g\	pax
!	!	!LO:TX:t=P:problem=kreska pseudotaktowa	!	!LO:TX:t=P:problem=kreska pseudotaktowa	!	!	!
!	!	!LO:TX:a:t=P:problem=w źródle możliwa ligatura	!	!	!	!	!
4F#\	Et	(<2d\	Et	2f#\	ho-	2a\	ho-
!LO:TX:t=P:problem=kreska pseudotaktowa	!	!	!	!	!	!	!
4F#\	in	.	.	.	.	.	.
2G\	ter-	4d\)	.	2.e\	-mi-	2.g/	-mi-
.	.	4d\	in	.	.	.	.
!LO:TX:t=P:problem=kreska pseudotaktowa	!	!	!	!	!	!	!
2A\	-ra	4c#X\	ter-	.	.	.	.
!	!	!LO:TX:t=P:problem=kreska pseudotaktowa	!	!LO:TX:t=P:problem=kreska pseudotaktowa	!	!LO:TX:t=P:problem=kreska pseudotaktowa	!
.	.	4c#\	-ra	4e\	-ni-	4g/	-ni-
=3	=3	=3	=3	=3	=3	=3	=3
!LO:TX:t=P:global:problem=kreska oddechu na różnych liniach [rozdzielacz słów / znak oddechu]	!	!	!	!	!	!	!
!	!	!	!	!	!	!LO:TX:t=P:global:problem=kreska oddechu na różnych liniach [rozdzielacz słów / znak oddechu]	!
!	!	!LO:TX:t=P:global:problem=kreska oddechu na różnych liniach [rozdzielacz słów / znak oddechu]	!	!	!	!	!
!	!	!	!	!LO:TX:t=P:global:problem=kreska oddechu na różnych liniach [rozdzielacz słów / znak oddechu]	!	!	!
2D,</	pax	2d,<\	pax	2f#,<\	-b(us)	2f#,</	-b(us)
!	!	!LO:TX:t=P:problem=kreska pseudotaktowa	!	!	!	!	!
4D,</	pax	2d\	ho-	4f#\	bo-	4a\	bo-
!LO:TX:t=P:problem=kreska pseudotaktowa	!	!	!	!LO:TX:t=P:problem=kreska pseudotaktowa	!	!LO:TX:t=P:problem=kreska pseudotaktowa	!
4D/	ho-	.	.	4f#\	-nae	4a\	-nae
2G\	-mi-	2d\	-mi-	2g\	Vo-	2b\	vo-
4G\	-ni-	4d\	-ni-	2g\	-lun-	2b\	-lun-
!LO:TX:t=P:problem=kreska pseudotaktowa	!	!LO:TX:t=P:problem=kreska pseudotaktowa	!	!	!	!	!
4G\	-b(us)	4d\	-b(us)	.	.	.	.
=4	=4	=4	=4	=4-	=4-	=4-	=4-
!	!	!	!	!LO:TX:t=P:problem=kreska pseudotaktowa	!	!LO:TX:t=P:problem=kreska pseudotaktowa	!
4C/	bo-	4e\	bo-	1g	-ta-	0a	-ta-
4C,</	-nae	4e\	-nae	.	.	.	.
4C/	vo-	4e\	vo-	.	.	.	.
!	!	!LO:TX:t=P:problem=kreska pseudotaktowa	!	!	!	!	!
4C/	-lun-	4e\	-lun-	.	.	.	.
2D\	-ta-	2d\	-ta-	2f#\	-tis	.	.
!LO:TX:t=P:problem=kreska pseudotaktowa	!	!	!	!	!	!	!
2D\	-tis	4d,<\	-tis.	4r	.	.	.
!	!	!LO:TX:t=P:problem=kreska pseudotaktowa	!	!LO:TX:t=P:problem=kreska pseudotaktowa	!	!	!
.	.	4d\	Lau-	4f#\	Lau-	.	.
=5	=5	=5	=5	=5	=5	=5	=5
1r	.	2B\	-da-	2g\	-da-	2b\	-tis.
!	!	!	!	!	!	!LO:TX:t=P:problem=kreska pseudotaktowa	!
.	.	2A/	-m(us)	2f#\	-m(us)	2r	.
!	!	!LO:TX:t=P:problem=kreska pseudotaktowa	!	!LO:TX:t=P:problem=kreska pseudotaktowa	!	!	!
2r	.	1G	Te	1g	Te	2r	.
4G\	be-	.	.	.	.	4g/	be-
!LO:TX:t=P:problem=kreska pseudotaktowa	!	!	!	!	!	!LO:TX:t=P:problem=kreska pseudotaktowa	!
4G\	-ne-	.	.	.	.	4g/	-ne-
=6	=6	=6	=6	=6	=6	=6	=6
2F#\	-di-	1r	.	1r	.	2dd\	-di-
4E\	-ci-	.	.	.	.	4cc#X\	-ci-
!	!	!	!	!	!	!LO:TX:t=P:problem=kreska pseudotaktowa	!
4E\	-m(us)	.	.	.	.	4cc#\	-m(us)
!LO:TX:t=P:problem=kreska pseudotaktowa	!	!	!	!	!	!	!
1D	Te	2r	.	2r	.	2dd,<\	Te
.	.	4d\	a-	4f#\	a-	4a\	a-
!	!	!LO:TX:t=P:problem=kreska pseudotaktowa	!	!LO:TX:t=P:problem=kreska pseudotaktowa	!	!	!
.	.	4d\	-do-	4f#\	-do-	4a\	-do-
=7	=7	=7	=7	=7	=7	=7-	=7-
1r	.	2d\	-ra-	2g#X\	-ra-	2b\	-ra-
!	!	!	!	!LO:TX:t=P:problem=kreska pseudotaktowa	!	!LO:TX:t=P:problem=kreska pseudotaktowa	!
.	.	2c\	-m(us)	2a\	-mus	2ccn\	-m(us)
!	!	!	!	!LO:LB:g=original	!	!LO:LB:g=original	!
4r	.	2B\	Te	2g#X,<\	Te	4dd\	Te
4E\	glo-	.	.	.	.	4b\	glo-
!	!	!LO:TX:t=P:problem=kreska pseudotaktowa	!	!LO:TX:t=P:problem=kreska pseudotaktowa	!	!	!
4C/	-ri-	2r	.	2a\	glo-	4cc\	-ri-
!	!	!	!	!	!	!LO:TX:t=P:problem=kreska pseudotaktowa	!
4C/	-fi-	.	.	.	.	4cc\	-fi-
=8-	=8-	=8	=8	=8	=8	=8	=8
!	!	!LO:TX:t=P:problem=kreska pseudotaktowa	!	!	!	!	!
*	*	*	*	*	*	*lig	*
2D\	-ca-	1r	.	2a\	-ri-	1b	-ca-
!LO:TX:t=P:problem=kreska pseudotaktowa	!	!	!	!	!	!	!
2E\	-m(us)	.	.	2g#X\	-fi-	.	.
!	!	!LO:LB:g=original	!	!	!	!	!
!	!	!	!	!	!	!LO:TX:t=P:problem=kreska pseudotaktowa	!
2AA/	Te	2A/	Gra-	2.a\	-ca-	1cc	.
!LO:TX:t=P:problem=kreska pseudotaktowa	!	!	!	!	!	!	!
2r	.	4A/	-ti-	.	.	.	.
!	!	!LO:TX:t=P:problem=kreska pseudotaktowa	!	!LO:TX:t=P:problem=kreska pseudotaktowa	!	!	!
.	.	4A/	-as	4a\	-mus	.	.
*	*	*	*	*	*	*Xlig	*
!LO:LB:g=original	!	!	!	!	!	!	!
=9	=9	=9	=9	=9	=9	=9	=9
2E\	Gra-	2e\	a-	2g#X\	Te	2.b\	.
!	!	!	!	!LO:TX:t=P:problem=kreska pseudotaktowa	!	!	!
4E\	-ti-	4e\	-gi-	2r	.	.	.
!LO:TX:t=P:problem=kreska pseudotaktowa	!	!LO:TX:t=P:problem=kreska pseudotaktowa	!	!	!	!	!
4E\	-as	4e\	-m(us)	.	.	4b\	-m(us)
!	!	!LO:TX:a:t=P:problem=w źródle możliwa ligatura	!	!	!	!	!
2A\	a-	(<1e	Ti-	2e\	Gra-	2cc\	Te.
!	!	!	!	!	!	!LO:TX:t=P:problem=kreska pseudotaktowa	!
4G\	-gi-	.	.	4e\	-ti-	2r	.
!	!	!	!	!LO:TX:t=P:problem=kreska pseudotaktowa	!	!	!
4G\	-m(us)	.	.	4e\	-as	.	.
=10-	=10-	=10-	=10-	=10	=10	=10	=10
1Fn	Ti-	2e\)	.	2a\	a-	2a\	Gra-
!	!	!LO:TX:t=P:problem=kreska pseudotaktowa	!	!	!	!	!
.	.	2d\	.	4a\	-gi-	4a\	-ti-
!	!	!	!	!LO:TX:t=P:problem=kreska pseudotaktowa	!	!LO:TX:t=P:problem=kreska pseudotaktowa	!
.	.	.	.	4a\	-m(us)	4a\	-as
2E,<\	-bi	2e,<\	-bi.	2g#X\	Ti-	2ee\	a-
!	!	!	!	!LO:TX:t=P:problem=kreska pseudotaktowa	!	!	!
4E\	p(ro)-	4e\	pro-	2g#\	-bi	4ee\	-gi-
!LO:TX:t=P:problem=kreska pseudotaktowa	!	!LO:TX:t=P:problem=kreska pseudotaktowa	!	!	!	!LO:TX:t=P:problem=kreska pseudotaktowa	!
4E\	-pter	4e\	-pter	.	.	4ee\	-m(us)
=11	=11	=11	=11	=11	=11	=11	=11
2A\	ma-	2e\	ma-	2a\	pro-	4ccn\	ti-
.	.	.	.	.	.	4cc\	-bi
!	!	!LO:TX:t=P:problem=kreska pseudotaktowa	!	!LO:TX:t=P:problem=kreska pseudotaktowa	!	!	!
2D,</	-gna(m)	2fn\	-gna(m)	2a\	-pter	4dd\	pro-
!	!	!	!	!	!	!LO:TX:t=P:problem=kreska pseudotaktowa	!
.	.	.	.	.	.	4dd\	-pter
2G\	glo-	(>2d\	ma-	1.gn	ma-	4b\	ma-
.	.	.	.	.	.	4b,<\	-gna(m)
4C/	-ri-	2e\)	.	.	.	4cc\	glo-
!LO:TX:t=P:problem=kreska pseudotaktowa	!	!	!	!	!	!LO:TX:t=P:problem=kreska pseudotaktowa	!
4C/	-am	.	.	.	.	4cc\	-ri-
=12	=12	=12-	=12-	=12-	=12-	=12	=12
!	!	!LO:TX:t=P:problem=kreska pseudotaktowa	!	!	!	!	!
2G\	tu-	1d,<	-gnam	.	.	2cc\	-a(m)
!LO:TX:t=P:problem=kreska pseudotaktowa	!	!	!	!LO:TX:t=P:problem=kreska pseudotaktowa	!	!	!
2G,<\	-a(m)	.	.	2g\	-gna(m)	2b\	tu-
2C/	Do-	2e\	glo-	2g\	glo-	2cc\	-a(m).
!	!	!	!	!	!	!LO:TX:t=P:problem=kreska pseudotaktowa	!
4C/	-mi-	4c\	-ri-	4e\	-ri-	2r	.
!LO:TX:t=P:problem=kreska pseudotaktowa	!	!LO:TX:t=P:problem=kreska pseudotaktowa	!	!LO:TX:t=P:problem=kreska pseudotaktowa	!	!	!
4C/	-ne	4c\	-am	4e\	-am	.	.
=13	=13	=13	=13	=13	=13	=13	=13
2G\	De-	1B	tu-	1d	tu-	2g/	Do-
!LO:TX:t=P:problem=kreska pseudotaktowa	!	!	!	!	!	!	!
2G\	-us	.	.	.	.	4g/	-mi-
!	!	!	!	!	!	!LO:TX:t=P:problem=kreska pseudotaktowa	!
.	.	.	.	.	.	4g/	-ne
!	!	!LO:TX:t=P:problem=kreska pseudotaktowa	!	!LO:TX:t=P:problem=kreska pseudotaktowa	!	!	!
2Fn\	Rex	1A	-am.	1d,<	-am.	4dd\	DE-
.	.	.	.	.	.	4dd\	-(us)
!LO:TX:t=P:problem=kreska pseudotaktowa	!	!	!	!	!	!	!
2F\	cae-	.	.	.	.	4dd\	Rex
!	!	!	!	!	!	!LO:TX:t=P:problem=kreska pseudotaktowa	!
.	.	.	.	.	.	4dd\	cae-
!	!	!	!	!LO:LB:g=original	!	!LO:LB:g=original	!
=14	=14	=14	=14	=14	=14	=14	=14
!	!	!LO:TX:t=P:problem=kreska pseudotaktowa	!	!	!	!	!
4E\	-le-	00r	.	0r	.	2dd\	-le-
4E,<\	-stis	.	.	.	.	.	.
!	!	!	!	!	!	!LO:TX:t=P:problem=kreska pseudotaktowa	!
4A\	De-	.	.	.	.	2cc#X,<\	-stis,
!LO:TX:t=P:problem=kreska pseudotaktowa	!	!	!	!	!	!	!
4G\	-us	.	.	.	.	.	.
(>4Fn\	Pa-	.	.	.	.	2dd\	De-
4E\	.	.	.	.	.	.	.
!	!	!	!	!	!	!LO:TX:t=P:problem=kreska pseudotaktowa	!
4F\)	.	.	.	.	.	2a\	-us
*custos:G	*	*	*	*	*	*	*
!LO:TX:t=P:problem=kreska pseudotaktowa	!	!	!	!	!	!	!
4D\	.	.	.	.	.	.	.
!LO:LB:g=original	!	!	!	!	!	!	!
=15	=15	=15	=15	=15-	=15-	=15	=15
!	!	!	!	!LO:TX:t=P:problem=kreska pseudotaktowa	!	!	!
4G\	.	.	.	1r	.	4b-X\	Pa-
4Fn\	-ter	.	.	.	.	4a\	.
4E|>\	.	.	.	.	.	4g,<\	-ter
4D|>\	om-	.	.	.	.	4fn/	om-
2A\	-ni-	.	.	2a\	Do-	2.e/	-ni-
2AA/	-po-	.	.	4a\	-mi-	.	.
!	!	!	!	!LO:TX:t=P:problem=kreska pseudotaktowa	!	!	!
.	.	.	.	4g\	-ne	4e/	-po-
=16-	=16-	=16	=16	=16	=16	=16-	=16-
!LO:TX:t=P:problem=kreska pseudotaktowa	!	!	!	!	!	!LO:TX:t=P:problem=kreska pseudotaktowa	!
1D	-tens	2d\	Do-	4f#X\	Fi-	1d	-tens
.	.	.	.	4e\	-li	.	.
.	.	4d\	-mi-	4f#\	u-	.	.
!	!	!LO:TX:t=P:problem=kreska pseudotaktowa	!	!LO:TX:t=P:problem=kreska pseudotaktowa	!	!	!
.	.	4d\	-ne	4d\	-ni-	.	.
!	!	!	!	!	!	!LO:TX:t=P:problem=kreska pseudotaktowa	!
00r	.	4B\	Fi-	2g\	-ge-	1r	.
.	.	4A\	-li	.	.	.	.
.	.	4B\	U-	4g\	-ni-	.	.
!	!	!LO:TX:t=P:problem=kreska pseudotaktowa	!	!LO:TX:t=P:problem=kreska pseudotaktowa	!	!	!
.	.	4G/	-ni-	4f#\	-te	.	.
!	!	!LO:LB:g=original	!	!	!	!	!
=17-	=17-	=17	=17	=17	=17	=17	=17
*	*	*	*	*	*	*lig	*
.	.	2c\	-ge-	(>4e\	Je-	1g	Je-
.	.	.	.	4d\	.	.	.
.	.	4c\	-ni-	4e\	.	.	.
!	!	!LO:TX:t=P:problem=kreska pseudotaktowa	!	!LO:TX:t=P:problem=kreska pseudotaktowa	!	!	!
.	.	4c\	-te	4c\)	.	.	.
.	.	(<4A/	Je-	1.fn	.	1a	.
.	.	4G/)	.	.	.	.	.
.	.	(<4A/	-su	.	.	.	.
.	.	4Fn/)	.	.	.	.	.
*	*	*	*	*	*	*Xlig	*
=18-	=18-	=18-	=18-	=18-	=18-	=18-	=18-
*	*	*	*ij	*	*	*	*
.	.	2B-X\	Je-	.	.	2dd\	.
!	!	!	!	!LO:TX:t=P:problem=kreska pseudotaktowa	!	!LO:TX:t=P:problem=kreska pseudotaktowa	!
.	.	2A\	su	2fny\	-su	2cc,<\	-su
*	*	*	*Xij	*	*	*	*
!LO:TX:t=P:problem=kreska pseudotaktowa	!	!LO:TX:t=P:problem=kreska pseudotaktowa	!	!	!	!	!
1r	.	1G	X-	2fn\	Chri-	1b-X	X-
.	.	.	.	2e\	.	.	.
=19	=19	=19	=19	=19-	=19-	=19-	=19-
!	!	!	!	!LO:TX:t=P:problem=kreska pseudotaktowa	!	!LO:TX:t=P:problem=kreska pseudotaktowa	!
2Fn\	Do-	2Fn,</	-te.	1fny,<	-ste!	1a	-te
!	!	!LO:TX:t=P:problem=kreska pseudotaktowa	!	!	!	!	!
!	!	!LO:TX:a:t=P:problem=w źródle możliwa ligatura	!	!	!	!	!
4F\	-mi-	(<2fn\	Do-	.	.	.	.
!LO:TX:t=P:problem=kreska pseudotaktowa	!	!	!	!	!	!	!
4F\	-ne	.	.	.	.	.	.
!	!	!	!	!	!	!LO:TX:t=P:problem=kreska pseudotaktowa	!
2c\	DE-	4f\)	.	2g\	Do-	1r	.
.	.	4f\	-mi-	.	.	.	.
!LO:TX:t=P:problem=kreska pseudotaktowa	!	!LO:TX:t=P:problem=kreska pseudotaktowa	!	!	!	!	!
!	!	!LO:TX:a:t=P:problem=w źródle możliwa ligatura	!	!	!	!	!
2C/	-(us)	(<2e\	-ne	4g\	-mi-	.	.
!	!	!	!	!LO:TX:t=P:problem=kreska pseudotaktowa	!	!	!
.	.	.	.	4g\	-ne	.	.
=20	=20	=20	=20	=20	=20	=20	=20
(>4D\	a-	2e\)	.	2fn\	De-	2a\	Do-
4E\)	.	.	.	.	.	.	.
!	!	!	!	!LO:TX:t=P:problem=kreska pseudotaktowa	!	!	!
(>4Fn\	-gn(us)	1d	De-	2f\	-us	4a\	-mi-
!	!	!	!	!	!	!LO:TX:t=P:problem=kreska pseudotaktowa	!
4G\)	.	.	.	.	.	4a\	-ne
2A\	De-	.	.	2e\	a-	2a\	De-
!LO:TX:t=P:problem=kreska pseudotaktowa	!	!LO:TX:t=P:problem=kreska pseudotaktowa	!	!	!	!LO:TX:t=P:problem=kreska pseudotaktowa	!
2AA/	-i	2c#X\	-us	2e\	-gn(us)	2a\	-us
=21	=21	=21	=21	=21-	=21-	=21	=21
1D	Fi-	2d\	a-	1fn	De-	2a\	a-
.	.	2B,<\	-gn(us)	.	.	2dd\	-gn(us)
!	!	!	!	!LO:TX:t=P:problem=kreska pseudotaktowa	!	!	!
2E\	-li-	2cn\	De-	1e	-i	2g/	De-
!LO:TX:t=P:problem=kreska pseudotaktowa	!	!LO:TX:t=P:problem=kreska pseudotaktowa	!	!	!	!LO:TX:t=P:problem=kreska pseudotaktowa	!
2C/	-us	2c\	-i	.	.	2g,</	-i
!	!	!	!	!LO:LB:g=original	!	!LO:LB:g=original	!
=22	=22	=22	=22	=22	=22	=22	=22
(>4Fn\	Pa-	2c\	Fi-	2fn\	Fi-	2a\	Fi-
4G\	.	.	.	.	.	.	.
4A\)	.	4c\	-li-	4f\	-li-	4a\	-li-
!LO:TX:t=P:problem=kreska pseudotaktowa	!	!LO:TX:t=P:problem=kreska pseudotaktowa	!	!	!	!LO:TX:t=P:problem=kreska pseudotaktowa	!
4F\	.	4c\	-us	4e\	-us	4a\	-us
!	!	!	!	!	!	!LO:TX:t=P:problem=kreska pseudotaktowa	!
!	!	!	!	!	!	!LO:TX:a:t=P:problem=w źródle możliwa ligatura	!
4G\	.	2B\	Pa-	(>2d\	Pa-	(<1g	Pa-
4F\	.	.	.	.	.	.	.
!	!	!	!	!LO:TX:t=P:problem=kreska pseudotaktowa	!	!	!
4E\	.	1c\	.	2e\)	.	.	.
4C/	.	.	.	.	.	.	.
=23-	=23-	=23-	=23-	=23	=23	=23	=23
2G\	.	.	.	1d	-tris.	1g)	.
!LO:TX:t=P:problem=kreska pseudotaktowa	!	!LO:TX:t=P:problem=kreska pseudotaktowa	!	!	!	!	!
2GG/	.	2B\	-tris.	.	.	.	.
!	!	!	!	!LO:TX:t=P:problem=kreska pseudotaktowa	!	!	!
2C,</	-tris	2c,<\	.	1e	.	2g,<\	-tris
!	!	!LO:TX:t=P:problem=kreska pseudotaktowa	!	!	!	!LO:TX:t=P:problem=kreska pseudotaktowa	!
!	!	!	!	!	!	!LO:TX:a:t=P:problem=w źródle możliwa ligatura	!
2C/	Qui	2e\	Qui	.	.	(<2cc\	Qui
!	!	!LO:LB:g=original	!	!	!	!	!
=24-	=24-	=24	=24	=24	=24	=24	=24
2G\	tol-	1d	tol-	2r	.	2cc\)	.
4G\	-lis	.	.	1g	pec-	2b\	tol-
!LO:TX:t=P:problem=kreska pseudotaktowa	!	!	!	!	!	!	!
4G\	pec-	.	.	.	.	.	.
!LO:LB:g=original	!	!	!	!	!	!	!
2D\	-ca-	2d,<\	-lis	.	.	2.a,<\	-lis
4D\	-ta	1d\	pec-	4fn\	-ca-	.	.
*	*ij	*	*	*	*	*	*
!LO:TX:t=P:problem=kreska pseudotaktowa	!	!	!	!LO:TX:t=P:problem=kreska pseudotaktowa	!	!LO:TX:t=P:problem=kreska pseudotaktowa	!
4D\	pec-	.	.	4f\	-ta	4a\	pec-
=25	=25	=25-	=25-	=25	=25	=25	=25
2A\	-ca-	.	.	1e	mun-	4a\	-ca-
.	.	.	.	.	.	4a\	-ta
!LO:TX:t=P:problem=kreska pseudotaktowa	!	!	!	!	!	!	!
2AA/	-ta	4cn\	-ca-	.	.	1a	mun-
!	!	!LO:TX:t=P:problem=kreska pseudotaktowa	!	!	!	!	!
.	.	4c\	-ta	.	.	.	.
*	*Xij	*	*	*	*	*	*
2E\	mun-	2B\	mun-	2e,<\	-di	.	.
!LO:TX:t=P:problem=kreska pseudotaktowa	!	!LO:TX:t=P:problem=kreska pseudotaktowa	!	!	!	!LO:TX:t=P:problem=kreska pseudotaktowa	!
2E\	-di.	2B\	-di	1b\	mi-	2g#X,</	-di
=26	=26	=26	=26	=26-	=26-	=26	=26
2.A\	mi-	2r	.	.	.	2.ccn\	mi-
.	.	4e\	mi-	1a	ſe-	.	.
!	!	!LO:TX:t=P:problem=kreska pseudotaktowa	!	!	!	!	!
4A\	-ſe-	4e\	-ſe-	.	.	4cc\	-ſe-
2D#X\	-re-	2f#X\	-re-	.	.	4cc\	-re-
.	.	.	.	.	.	4cc\	-re
!LO:TX:t=P:problem=kreska pseudotaktowa	!	!	!	!	!	!	!
2E\	-re	2g\	-re	4g\	-re-	1b\	no-
!	!	!	!	!LO:TX:t=P:problem=kreska pseudotaktowa	!	!	!
.	.	.	.	4g\	-re	.	.
=27	=27	=27-	=27-	=27	=27	=27-	=27-
1Cn	no-	1e	no-	2g\	no-	.	.
!	!	!	!	!	!	!LO:TX:t=P:problem=kreska pseudotaktowa	!
.	.	.	.	2e\	.	2a\	.
2BB,</	-bis.	2d#X,<\	-bis.	2f#X,<\	-bis.	2b,<\	-bis
!LO:TX:t=P:problem=kreska pseudotaktowa	!	!LO:TX:t=P:problem=kreska pseudotaktowa	!	!LO:TX:t=P:problem=kreska pseudotaktowa	!	!	!
2BB/	Qui	2d#\	Qui	2f#\	Qui	2b\	Qui
=28	=28	=28	=28	=28	=28	=28-	=28-
2E\	tol-	2e\	tol-	2g\	tol-	2b\	tol-
4F#\	-lis	4A,</	-lis	4f#\	-lis	4a\	-lis
!LO:TX:t=P:problem=kreska pseudotaktowa	!	!LO:TX:t=P:problem=kreska pseudotaktowa	!	!	!	!	!
4D\	pec-	4d\	pec-	4f#\	pec-	4a\	pec-
2G\	-ca-	4d\	-ca-	2g\	-ca-	2b\	-ca-
.	.	4d\	-ta	.	.	.	.
!LO:TX:t=P:problem=kreska pseudotaktowa	!	!	!	!LO:TX:t=P:problem=kreska pseudotaktowa	!	!LO:TX:t=P:problem=kreska pseudotaktowa	!
2F#\	-ta	1d\	mun-	2d\	-ta	2a\	-ta
!	!	!	!	!	!	!LO:LB:g=original	!
=29	=29	=29-	=29-	=29	=29	=29	=29
1E	mun-	.	.	1g	mun-	(>2b\	mun-
!	!	!LO:TX:t=P:problem=kreska pseudotaktowa	!	!	!	!	!
.	.	2c#X\	.	.	.	2ee\)	.
!LO:TX:t=P:problem=kreska pseudotaktowa	!	!	!	!	!	!LO:TX:t=P:problem=kreska pseudotaktowa	!
1D,<	-di	2d,<\	-di,	2f#,<\	-di	1a	-di
.	.	4d\	Su-	4f#\	ſu-	.	.
!	!	!	!	!LO:TX:t=P:problem=kreska pseudotaktowa	!	!	!
.	.	4cn\	-sci-	4f#\	-sci-	.	.
!	!	!	!	!LO:LB:g=original	!	!	!
=30	=30	=30-	=30-	=30	=30	=30	=30
!	!	!LO:TX:t=P:problem=kreska pseudotaktowa	!	!LO:TX:t=P:problem=kreska pseudotaktowa	!	!	!
2r	.	1B,<	-pe	1g,<	-pe	2r	.
!	!	!	!	!	!	!LO:TX:a:t=P:problem=w źródle możliwa ligatura	!
4G\	de-	.	.	.	.	(>2dd\	de-
!LO:TX:t=P:problem=kreska pseudotaktowa	!	!	!	!	!	!	!
4G\	-pre-	.	.	.	.	.	.
2c\	-ca-	4e\	de-	4g\	de-	4dd\)	.
.	.	4e\	-pre-	4g\	-pre-	4dd\	-pre-
!LO:TX:t=P:problem=kreska pseudotaktowa	!	!	!	!	!	!	!
2C/	-ti-	4e\	-ca-	4a\	-ca-	4ccn\	-ca-
*	*	*custos:A	*	*	*	*	*
!	!	!LO:TX:t=P:problem=kreska pseudotaktowa	!	!	!	!	!
!	!	!	!	!LO:TX:t=P:problem=kreska pseudotaktowa	!	!LO:TX:t=P:problem=kreska pseudotaktowa	!
.	.	4c\	-ti-	4a\	-ti-	4cc\	-ti-
!	!	!LO:LB:g=original	!	!	!	!	!
=31	=31	=31	=31	=31	=31	=31	=31
2D\	-o-	2A\	-o-	4f#\	-o-	2cc\	-o-
.	.	.	.	4f#\	-(ne)m	.	.
!LO:TX:t=P:problem=kreska pseudotaktowa	!	!	!	!	!	!	!
2G\	-nem	(>4B\	-nem	1g	no-	2b,<\	-nem
.	.	4d\)	.	.	.	.	.
!LO:LB:g=original	!	!	!	!	!	!	!
!	!	!LO:TX:t=P:problem=kreska pseudotaktowa	!	!	!	!LO:TX:t=P:problem=kreska pseudotaktowa	!
1D	no-	1d	no-	.	.	1a	no-
.	.	.	.	2f#\	.	.	.
=32-	=32-	=32	=32	=32-	=32-	=32	=32
!LO:TX:t=P:problem=kreska pseudotaktowa	!	!	!	!LO:TX:t=P:problem=kreska pseudotaktowa	!	!	!
1GG	-stram	1d	-stram	1g	-stram	2b,<\	-stram
.	.	.	.	.	.	2g\	Qui
!	!	!	!	!	!	!LO:TX:t=P:problem=kreska pseudotaktowa	!
!	!	!	!	!	!	!LO:TX:a:t=P:problem=w źródle możliwa ligatura	!
2r	.	2r	.	2r	.	(<1cc	se-
!	!	!LO:TX:t=P:problem=kreska pseudotaktowa	!	!LO:TX:t=P:problem=kreska pseudotaktowa	!	!	!
2C/	Qui	2en\	Qui	2g\	Qui	.	.
=33-	=33-	=33	=33	=33	=33	=33	=33
2Fn\	se-	2fn\	se-	2a\	se-	2cc\)	.
4F\	-des	4c\	-des	4fn\	-des	4a\	-des
!LO:TX:t=P:problem=kreska pseudotaktowa	!	!LO:TX:t=P:problem=kreska pseudotaktowa	!	!LO:TX:t=P:problem=kreska pseudotaktowa	!	!LO:TX:t=P:problem=kreska pseudotaktowa	!
4F\	ad	4c\	ad	4f\	ad	4a\	ad
2D\	dex-	2d\	dex-	2f\	dex-	2b\	dex-
4D\	-te-	4d\	-te-	4f\	-te-	4b\	-te-
!LO:TX:t=P:problem=kreska pseudotaktowa	!	!LO:TX:t=P:problem=kreska pseudotaktowa	!	!	!	!	!
4D\	-ra(m)	4d\	-ra(m)	4f\	-ram	4b\	-ra(m)
=34	=34	=34	=34	=34-	=34-	=34-	=34-
2E\	Pa-	4B\	P(a-	2e\	Pa-	2g#X/	P(a-
.	.	4B,<\	-tr)is	.	.	.	.
!LO:TX:t=P:problem=kreska pseudotaktowa	!	!	!	!LO:TX:t=P:problem=kreska pseudotaktowa	!	!LO:TX:t=P:problem=kreska pseudotaktowa	!
!	!	!LO:TX:a:t=P:problem=w źródle możliwa ligatura	!	!	!	!	!
2E\	-tris	(>2e\	mi-	2e\	-tris	2g#/	-t)ris
2.Fn\	mi-	4e\)	.	2.a\	mi-	2r	.
.	.	4A/	-se-	.	.	.	.
!	!	!LO:TX:t=P:problem=kreska pseudotaktowa	!	!	!	!	!
!	!	!LO:TX:a:t=P:problem=w źródle możliwa ligatura	!	!	!	!	!
.	.	(<2d\	-re-	.	.	4dd\	mi-
!LO:TX:t=P:problem=kreska pseudotaktowa	!	!	!	!	!	!LO:TX:t=P:problem=kreska pseudotaktowa	!
4D\	-ſe-	.	.	4a\	-ſe-	4dd\	-ſe-
=35	=35	=35	=35	=35-	=35-	=35	=35
2E\	-re-	2d\)	.	4g#X\	-re-	2b\	-re-
.	.	.	.	4g#\	-re	.	.
!LO:TX:t=P:problem=kreska pseudotaktowa	!	!LO:TX:t=P:problem=kreska pseudotaktowa	!	!	!	!	!
2A\	-re	2c\	-re	1a	no-	4cc\	-re
.	.	.	.	.	.	4a\	.
1E	no-	1B	no-	.	.	2b\	no-
!	!	!	!	!LO:TX:t=P:problem=kreska pseudotaktowa	!	!LO:TX:t=P:problem=kreska pseudotaktowa	!
.	.	.	.	2g#X,<\	-bis.	2b\	-bis
!	!	!	!	!	!	!LO:LB:g=original	!
=36-	=36-	=36-	=36-	=36	=36	=36	=36
!LO:TX:t=P:problem=kreska pseudotaktowa	!	!LO:TX:t=P:problem=kreska pseudotaktowa	!	!	!	!	!
1AA,<	-bis.	1A	-bis.	2.a\	Quo-	2.cc\	Quo-
.	.	.	.	4a\	-ni-	4cc\	-ni-
2r	.	2r	.	2g#X\	-am	2b\	-am
!LO:TX:t=P:problem=kreska pseudotaktowa	!	!	!	!LO:TX:t=P:problem=kreska pseudotaktowa	!	!LO:TX:t=P:problem=kreska pseudotaktowa	!
2E\	Tu	2e\	Tu	2g#\	Tu	2b\	Tu
!	!	!	!	!LO:LB:g=original	!	!	!
=37	=37	=37-	=37-	=37	=37	=37	=37
2A\	so-	2e\	so-	2a\	so-	2cc\	So-
!LO:TX:t=P:problem=kreska pseudotaktowa	!	!LO:TX:t=P:problem=kreska pseudotaktowa	!	!LO:TX:t=P:problem=kreska pseudotaktowa	!	!	!
2E\	-lus	2e\	-lus	2g#X\	-lus	2b\	-lus
2AA/	S(an)-	2e\	San-	2a\	San-	2cc\	San-
!LO:TX:t=P:problem=kreska pseudotaktowa	!	!LO:TX:t=P:problem=kreska pseudotaktowa	!	!LO:TX:t=P:problem=kreska pseudotaktowa	!	!LO:TX:t=P:problem=kreska pseudotaktowa	!
2E\	-ct(us)	2e\	-ct(us)	2g#X\	-ct(us)!	2b,<\	-ct(us)!
!	!	!LO:LB:g=original	!	!	!	!	!
=38	=38	=38	=38	=38	=38	=38	=38
1r	.	2.c\	Quo-	2.e\	Quo-	1r	.
.	.	4c\	-ni-	4e\	-ni-	.	.
2r	.	2B\	-am	2d,<\	-am	2r	.
!LO:TX:t=P:problem=kreska pseudotaktowa	!	!LO:TX:t=P:problem=kreska pseudotaktowa	!	!LO:TX:t=P:problem=kreska pseudotaktowa	!	!LO:TX:t=P:problem=kreska pseudotaktowa	!
2G\	Tu	2d\	Tu	2g\	Tu	2b\	Tu
=39	=39	=39	=39	=39	=39	=39	=39
2c\	So-	2e\	so-	2g\	so-	2cc\	so-
!	!	!LO:TX:t=P:problem=kreska pseudotaktowa	!	!	!	!	!
2G\	-l(us)	2d\	-l(us)	2g,<\	-l(us)	2b\	-lus
4c\	Do-	4e\	Do-	2g\	Do-	4cc\	Do-
4C/	-mi-	4e\	-mi-	.	.	4cc\	-mi-
!LO:TX:t=P:problem=kreska pseudotaktowa	!	!LO:TX:t=P:problem=kreska pseudotaktowa	!	!	!	!LO:TX:t=P:problem=kreska pseudotaktowa	!
2G\	-n(us)!	2d\	-n(us)	4g\	-mi-	2b\	-n(us)
!	!	!	!	!LO:TX:t=P:problem=kreska pseudotaktowa	!	!	!
.	.	.	.	4g,<\	-n(us)!	.	.
!LO:LB:g=original	!	!	!	!	!	!	!
=40	=40	=40	=40	=40	=40	=40	=40
1r	.	2.e\	Quo-	2.g\	Quo-	1r	.
.	.	4e\	-ni-	4g\	-ni-	.	.
2r	.	2d#X\	-am	2f#,<\	-am	2r	.
!LO:TX:t=P:problem=kreska pseudotaktowa	!	!LO:TX:t=P:problem=kreska pseudotaktowa	!	!LO:TX:t=P:problem=kreska pseudotaktowa	!	!LO:TX:t=P:problem=kreska pseudotaktowa	!
2BB/	Tu	2d#\	Tu	2f#\	Tu	2b\	Tu
=41	=41	=41	=41	=41	=41	=41	=41
2E\	so-	2e\	so-	2g\	So-	2b\	so-
4BB/	-lus	4d#X\	-l(us)	4f#\	-l(us)	4b\	-lus
!LO:TX:t=P:problem=kreska pseudotaktowa	!	!LO:TX:t=P:problem=kreska pseudotaktowa	!	!LO:TX:t=P:problem=kreska pseudotaktowa	!	!LO:TX:t=P:problem=kreska pseudotaktowa	!
4BB/	al-	4d#\	al-	4f#\	al-	4b\	al-
2E\	-tiſ-	2e\	-tiſ-	2g\	-tiſ-	2b\	-tiſ-
4E\	-si-	4e\	-si-	4g\	-si-	4b\	-si-
!LO:TX:t=P:problem=kreska pseudotaktowa	!	!LO:TX:t=P:problem=kreska pseudotaktowa	!	!LO:TX:t=P:problem=kreska pseudotaktowa	!	!LO:TX:t=P:problem=kreska pseudotaktowa	!
4E\	-m(us)	4e\	-m(us)	4g,<\	-m(us)	4b\	-m(us)
=42	=42	=42	=42	=42	=42	=42	=42
2F#\	Je-	2c#X\	Je-	2f#\	Je-	4a#X\	Je-
.	.	.	.	.	.	4a#\	-su
!LO:TX:t=P:problem=kreska pseudotaktowa	!	!	!	!	!	!	!
2BB/	-su	2d\	-su	2f#\	-su	1b	X-
!LO:TX:t=P:problem=kreska pseudotaktowa	!	!LO:TX:t=P:problem=kreska pseudotaktowa	!	!LO:TX:t=P:problem=kreska pseudotaktowa	!	!	!
1F#	X-	1c#X	X-	1f#	x-	.	.
!	!	!	!	!	!	!LO:TX:t=P:problem=kreska pseudotaktowa	!
.	.	.	.	.	.	2a#X\	.
=43	=43	=43	=43	=43	=43	=43	=43
!	!	!	!	!	!	!LO:TX:t=P:problem=kreska pseudotaktowa	!
2BB,</	-te	2d#X,<\	-te.	2f#,<\	-te!	1b,<	-te
!LO:TX:t=P:problem=kreska pseudotaktowa	!	!LO:TX:t=P:problem=kreska pseudotaktowa	!	!LO:TX:t=P:problem=kreska pseudotaktowa	!	!	!
2BB/	Cum	2d#\	Cum	2f#\	Cum	.	.
!	!	!	!	!LO:LB:g=original	!	!LO:LB:g=original	!
!	!	!	!	!	!	!LO:TX:t=P:problem=kreska pseudotaktowa	!
1E	S(an)-	2e\	S(an)-	1g	San-	1r	.
.	.	2c#X\	-cto	.	.	.	.
=44-	=44-	=44-	=44-	=44-	=44-	=44	=44
!LO:TX:t=P:problem=kreska pseudotaktowa	!	!	!	!LO:TX:t=P:problem=kreska pseudotaktowa	!	!	!
1D	-cto	2.dny\	Spi-	1f#	-cto	1a	Cum
.	.	4d\	-ri-	.	.	.	.
!	!	!LO:TX:t=P:problem=kreska pseudotaktowa	!	!	!	!	!
2.G\	Spi-	1d	-tu	2.g\	Spi-	2b\	S(an)-
!	!	!	!	!	!	!LO:TX:t=P:problem=kreska pseudotaktowa	!
.	.	.	.	.	.	2b\	-cto
!LO:TX:t=P:problem=kreska pseudotaktowa	!	!	!	!	!	!	!
4G\	-ri-	.	.	4g\	-ri-	.	.
!	!	!LO:LB:g=original	!	!	!	!	!
=45	=45	=45	=45	=45-	=45-	=45	=45
2G,<\	-tu	1d	in	2g,<\	-tu	4b\	Spi-
.	.	.	.	.	.	4b\	-ri-
!LO:TX:t=P:problem=kreska pseudotaktowa	!	!	!	!LO:TX:t=P:problem=kreska pseudotaktowa	!	!	!
2G\	in	.	.	2g\	in	4b\	-tu
!	!	!	!	!	!	!LO:TX:t=P:problem=kreska pseudotaktowa	!
.	.	.	.	.	.	4b\	in
2c\	glo-	2e\	glo-	2g\	glo-	2ccn\	glo-
4B\	-ri-	4d\	-ri-	4g\	-ri-	4dd\	-ri-
!	!	!LO:TX:t=P:problem=kreska pseudotaktowa	!	!LO:TX:t=P:problem=kreska pseudotaktowa	!	!LO:TX:t=P:problem=kreska pseudotaktowa	!
4B\	-a	4B\	-a	4g\	-a	4dd\	-a
=46-	=46-	=46	=46	=46	=46	=46	=46
2A\	De-	2c\	De-	2f#\	De-	2cc\	De-
!LO:TX:t=P:problem=kreska pseudotaktowa	!	!LO:TX:t=P:problem=kreska pseudotaktowa	!	!	!	!	!
2G\	-i	2d\	-i	2g\	-i	2b\	-i
2d\	Pa-	2d\	Pa-	2f#\	Pa-	1a	Pa-
!	!	!LO:TX:t=P:problem=kreska pseudotaktowa	!	!LO:TX:t=P:problem=kreska pseudotaktowa	!	!	!
2D/	-tris	2d,<\	-tris	2f#\	-tris	.	.
=47-	=47-	=47	=47	=47	=47	=47-	=47-
*lig	*	*	*	*	*	*	*
1BB	a-	2r	.	1d	a-	2g,</	-tris
!	!	!LO:TX:t=P:problem=kreska pseudotaktowa	!	!	!	!	!
.	.	2d\	a-	.	.	1g	A-
!	!	!	!	!LO:TX:t=P:problem=kreska pseudotaktowa	!	!	!
1C	.	2.c\	.	1e	.	.	.
.	.	.	.	.	.	1a\	.
!	!	!LO:TX:t=P:problem=kreska pseudotaktowa	!	!	!	!	!
.	.	4B\	.	.	.	.	.
=48-	=48-	=48	=48	=48	=48	=48-	=48-
1D	.	2A\	.	1f#	.	.	.
.	.	4d\	.	.	.	1b	.
.	.	4c\	.	.	.	.	.
*Xlig	*	*	*	*	*	*	*
!	!	!LO:TX:t=P:problem=kreska pseudotaktowa	!	!	!	!	!
!	!	!	!	!LO:TX:t=P:problem=kreska pseudotaktowa	!	!	!
2E\	.	2B\	.	1g	.	.	.
2C/	.	4e\	.	.	.	1cc\	.
!	!	!LO:TX:t=P:problem=kreska pseudotaktowa	!	!	!	!	!
.	.	4c\	.	.	.	.	.
=49-	=49-	=49	=49	=49	=49	=49-	=49-
0D	.	2A\	.	2f#\	men	.	.
!	!	!	!	!	!	!LO:TX:t=P:problem=kreska pseudotaktowa	!
.	.	4B\	.	1g	a-	2b\	.
.	.	4G/	-men	.	.	.	.
!	!	!LO:TX:t=P:problem=kreska pseudotaktowa	!	!	!	!	!
.	.	1d	a-	.	.	1a	.
!	!	!	!	!LO:TX:t=P:problem=kreska pseudotaktowa	!	!	!
.	.	.	.	2f#\	.	.	.
=50-	=50-	=50	=50	=50	=50	=50-	=50-
0GG;>	-men.	0d;<	-men.	0g;<	-men	0b;>	-men
==	==	==	==	==	==	==	==
*-	*-	*-	*-	*-	*-	*-	*-
!!!system-decoration: [(s1,s2,s3,s4)]
!!!RDF**kern: > = above
!!!RDF**kern: < = below
!!!RDF**kern: | = vertical stroke
!!!RDF**kern: N = linked
!!!RDF**kern: i = editorial accidental
!!!RDF**kern: l = terminal long
!!!EED: Wojciech Jakubiak-Danek
!!!EEV: 2021-07-25
!!!ENC: Krzysztof Stępień
!!!END: 2021-07-02
!!!YEC: Copyright 2022 Narodowy Instytut Fryderyka Chopina (https://polishscores.org)
!!!YEM: License CC-BY-4.0 (https://creativecommons.org/licenses/by/4.0)
